public/icons/astro-icon.svg

<svg width="129" height="128" viewBox="0 0 129 128" fill="none" xmlns="http://www.w3.org/2000/svg">
<g clip-path="url(#clip0_45_76)">
<path d="M98.5332 0H30.5332C13.9647 0 0.533203 13.4315 0.533203 30V98C0.533203 114.569 13.9647 128 30.5332 128H98.5332C115.102 128 128.533 114.569 128.533 98V30C128.533 13.4315 115.102 0 98.5332 0Z" fill="url(#paint0_linear_45_76)"/>
<path fill-rule="evenodd" clip-rule="evenodd" d="M79.3927 16.5055C80.2097 17.5195 80.6257 18.888 81.4587 21.624L99.6567 81.4045C92.8211 77.8575 85.4846 75.3736 77.9002 74.0385L66.0517 33.9985C65.981 33.76 65.8537 33.542 65.6806 33.3633C65.5074 33.1846 65.2937 33.0504 65.0575 32.9722C64.8213 32.894 64.5697 32.874 64.3241 32.914C64.0786 32.954 63.8463 33.0528 63.6472 33.202C63.3807 33.402 63.1862 33.683 63.0927 34.003L51.3872 74.0185C43.7687 75.3475 36.3986 77.8353 29.5332 81.3955L47.8197 21.6105C48.6562 18.8785 49.0732 17.513 49.8902 16.501C50.6112 15.6073 51.5492 14.9132 52.6147 14.485C53.8217 14 55.2497 14 58.1067 14H71.1682C74.0287 14 75.4587 14 76.6667 14.486C77.7331 14.9153 78.6716 15.6102 79.3927 16.5055Z" fill="#31274A"/>
<path fill-rule="evenodd" clip-rule="evenodd" d="M81.57 84.2495C78.57 86.815 72.582 88.564 65.685 88.564C57.2195 88.564 50.124 85.9285 48.2415 82.3845C47.5685 84.416 47.4175 86.7405 47.4175 88.226C47.4175 88.226 46.974 95.5185 52.046 100.591C52.0463 99.3258 52.5488 98.1129 53.4431 97.2186C54.3374 96.3243 55.5503 95.8218 56.815 95.8215C61.329 95.8215 61.324 99.76 61.3195 102.956V103.241C61.3195 108.091 64.2835 112.248 68.499 114C67.8501 112.665 67.5139 111.199 67.516 109.714C67.516 105.089 70.232 103.366 73.388 101.365C75.899 99.7725 78.689 98.003 80.612 94.453C81.6476 92.5411 82.1881 90.4004 82.1845 88.226C82.1845 86.8395 81.969 85.5035 81.57 84.2495Z" fill="#FF5D01"/>
<path fill-rule="evenodd" clip-rule="evenodd" d="M81.57 84.2495C78.57 86.815 72.582 88.564 65.685 88.564C57.2195 88.564 50.124 85.9285 48.2415 82.3845C47.5685 84.416 47.4175 86.7405 47.4175 88.226C47.4175 88.226 46.974 95.5185 52.046 100.591C52.0463 99.3258 52.5488 98.1129 53.4431 97.2186C54.3374 96.3243 55.5503 95.8218 56.815 95.8215C61.329 95.8215 61.324 99.76 61.3195 102.956V103.241C61.3195 108.091 64.2835 112.248 68.499 114C67.8501 112.665 67.5139 111.199 67.516 109.714C67.516 105.089 70.232 103.366 73.388 101.365C75.899 99.7725 78.689 98.003 80.612 94.453C81.6476 92.5411 82.1881 90.4004 82.1845 88.226C82.1845 86.8395 81.969 85.5035 81.57 84.2495Z" fill="url(#paint1_linear_45_76)"/>
</g>
<defs>
<linearGradient id="paint0_linear_45_76" x1="64.5332" y1="0" x2="64.5332" y2="128" gradientUnits="userSpaceOnUse">
<stop offset="0.193" stop-color="#FCB3B2"/>
<stop offset="1" stop-color="#C587EE"/>
</linearGradient>
<linearGradient id="paint1_linear_45_76" x1="95.0775" y1="63.3825" x2="77.3155" y2="100.566" gradientUnits="userSpaceOnUse">
<stop stop-color="#FF1639"/>
<stop offset="1" stop-color="#FF1639" stop-opacity="0"/>
</linearGradient>
<clipPath id="clip0_45_76">
<rect width="128" height="128" fill="white" transform="translate(0.533203)"/>
</clipPath>
</defs>
</svg>

<svg xmlns="http://www.w3.org/2000/svg" width="129" height="128" fill="none"><g clip-path="url(#a)"><path fill="url(#b)" d="M98.533 0h-68c-16.568 0-30 13.431-30 30v68c0 16.569 13.432 30 30 30h68c16.569 0 30-13.431 30-30V30c0-16.569-13.431-30-30-30Z"/><path fill="#31274A" fill-rule="evenodd" d="M79.393 16.506c.817 1.014 1.233 2.382 2.066 5.118l18.198 59.78A75.75 75.75 0 0 0 77.9 74.04l-11.848-40.04a1.544 1.544 0 0 0-2.96.004L51.388 74.019a75.749 75.749 0 0 0-21.854 7.376L47.82 21.611c.836-2.733 1.253-4.098 2.07-5.11a6.72 6.72 0 0 1 2.725-2.016C53.822 14 55.25 14 58.107 14h13.061c2.86 0 4.29 0 5.499.486a6.723 6.723 0 0 1 2.726 2.02Z" clip-rule="evenodd"/><path fill="#FF5D01" fill-rule="evenodd" d="M81.57 84.25c-3 2.565-8.988 4.314-15.885 4.314-8.466 0-15.561-2.635-17.444-6.18-.672 2.032-.824 4.356-.824 5.842 0 0-.443 7.293 4.629 12.365a4.77 4.77 0 0 1 4.769-4.77c4.514 0 4.509 3.939 4.505 7.135v.285c0 4.85 2.964 9.007 7.179 10.759a9.773 9.773 0 0 1-.983-4.286c0-4.625 2.716-6.348 5.872-8.349 2.511-1.593 5.301-3.362 7.224-6.912a13.029 13.029 0 0 0 1.573-6.227c0-1.386-.216-2.722-.615-3.977Z" clip-rule="evenodd"/><path fill="url(#c)" fill-rule="evenodd" d="M81.57 84.25c-3 2.565-8.988 4.314-15.885 4.314-8.466 0-15.561-2.635-17.444-6.18-.672 2.032-.824 4.356-.824 5.842 0 0-.443 7.293 4.629 12.365a4.77 4.77 0 0 1 4.769-4.77c4.514 0 4.509 3.939 4.505 7.135v.285c0 4.85 2.964 9.007 7.179 10.759a9.773 9.773 0 0 1-.983-4.286c0-4.625 2.716-6.348 5.872-8.349 2.511-1.593 5.301-3.362 7.224-6.912a13.029 13.029 0 0 0 1.573-6.227c0-1.386-.216-2.722-.615-3.977Z" clip-rule="evenodd"/></g><defs><linearGradient id="b" x1="64.533" x2="64.533" y1="0" y2="128" gradientUnits="userSpaceOnUse"><stop offset=".193" stop-color="#FCB3B2"/><stop offset="1" stop-color="#C587EE"/></linearGradient><linearGradient id="c" x1="95.078" x2="77.316" y1="63.383" y2="100.566" gradientUnits="userSpaceOnUse"><stop stop-color="#FF1639"/><stop offset="1" stop-color="#FF1639" stop-opacity="0"/></linearGradient><clipPath id="a"><path fill="#fff" d="M.533 0h128v128h-128z"/></clipPath></defs></svg>
